assets/fc/fc-neutral-trading.svg

<svg xmlns="http://www.w3.org/2000/svg" width="100%" height="100%" viewBox="0 0 48 48"><g fill="#1565C0"><path d="M43.4 13L35 20V6z"/><path d="M4 11h34v4H4z"/></g><g fill="#2196F3"><path d="M40 23h4v19h-4zM34 23h4v19h-4zM28 23h4v19h-4zM22 23h4v19h-4zM16 23h4v19h-4zM10 23h4v19h-4zM4 23h4v19H4z"/></g></svg>

<svg xmlns="http://www.w3.org/2000/svg" width="100%" height="100%" viewBox="0 0 48 48"><g fill="#1565C0"><path d="M43.4 13L35 20 35 6z"/><path d="M4 11H38V15H4z"/></g><g fill="#2196F3"><path d="M40 23H44V42H40zM34 23H38V42H34zM28 23H32V42H28zM22 23H26V42H22zM16 23H20V42H16zM10 23H14V42H10zM4 23H8V42H4z"/></g></svg>
